outputs/icons/content/email_round.svg

<svg xmlns="http://www.w3.org/2000/svg" width="1200" height="1200" fill="none"><g clip-path="url(#a)"><path fill="#000" d="M1000 200H200c-55 0-99.5 45-99.5 100l-.5 600c0 55 45 100 100 100h800c55 0 100-45 100-100V300c0-55-45-100-100-100m-20 212.5-353.5 221c-16 10-37 10-53 0L220 412.5c-12.5-8-20-21.5-20-36 0-33.5 36.5-53.5 65-36L600 550l335-209.5c28.5-17.5 65 2.5 65 36 0 14.5-7.5 28-20 36"/></g><defs><clipPath id="a"><path fill="#fff" d="M0 0h1200v1200H0z"/></clipPath></defs></svg>

<svg width="1200" height="1200" viewBox="0 0 1200 1200" fill="none" xmlns="http://www.w3.org/2000/svg"><g clip-path="url(#clip0_225_2425)"><path d="M1000 200H200C145 200 100.5 245 100.5 300L100 900C100 955 145 1000 200 1000H1000C1055 1000 1100 955 1100 900V300C1100 245 1055 200 1000 200ZM980 412.5L626.5 633.5C610.5 643.5 589.5 643.5 573.5 633.5L220 412.5C207.5 404.5 200 391 200 376.5C200 343 236.5 323 265 340.5L600 550L935 340.5C963.5 323 1000 343 1000 376.5C1000 391 992.5 404.5 980 412.5Z" fill="#1D1E23"/></g><defs><clipPath id="clip0_225_2425"><path width="24" fill="white" d="M0 0H1200V1200H0V0z"/></clipPath></defs></svg>
